svg/fluentui-system-icons/ic_fluent_person_walking_16_regular.svg

<svg width="16" height="16" viewBox="0 0 16 16" fill="none" xmlns="http://www.w3.org/2000/svg">
<path d="M8.75 2C8.05964 2 7.5 2.55964 7.5 3.25C7.5 3.94036 8.05964 4.5 8.75 4.5C9.44036 4.5 10 3.94036 10 3.25C10 2.55964 9.44036 2 8.75 2ZM6.5 3.25C6.5 2.00736 7.50736 1 8.75 1C9.99264 1 11 2.00736 11 3.25C11 3.87597 10.7444 4.44224 10.3318 4.85011C10.5669 4.97984 10.7694 5.16868 10.9162 5.40386L11.5624 6.43921L12.8488 7.24324C13.5982 7.71157 13.8259 8.69869 13.3576 9.44803C12.8893 10.1974 11.9022 10.4252 11.1528 9.95683L9.70317 9.0508L10.2809 9.86778C10.5323 10.2233 10.6904 10.6363 10.7407 11.0689L10.9901 13.2153C11.0921 14.0931 10.4632 14.8873 9.58549 14.9893C8.70774 15.0913 7.9135 14.4624 7.81151 13.5847L7.57977 11.5904L7.22506 11.0888L6.0905 13.9838C5.76808 14.8066 4.83975 15.2121 4.01702 14.8897C3.19428 14.5673 2.7887 13.639 3.11112 12.8162L4.21461 10.0004C4.01591 9.99965 3.81403 9.96158 3.6187 9.88213C2.80016 9.5492 2.40649 8.61576 2.73942 7.79722L3.70245 5.42948C3.89719 4.95069 4.31124 4.59546 4.81408 4.47578L6.63034 4.04349L6.64281 4.04058C6.55049 3.79462 6.5 3.52821 6.5 3.25ZM7.14853 5.01853C7.05448 4.9946 6.95603 4.99384 6.86162 5.01631L5.04536 5.4486C4.85679 5.49348 4.70152 5.62669 4.6285 5.80624L3.66547 8.17397C3.54062 8.48092 3.68824 8.83096 3.9952 8.95581C4.30215 9.08066 4.65219 8.93303 4.77704 8.62608L5.53137 6.77145C5.58931 6.62901 5.71249 6.52333 5.86208 6.48773C6.23595 6.39874 6.55569 6.76664 6.41546 7.12446L4.04191 13.1811C3.92101 13.4896 4.0731 13.8378 4.38163 13.9587C4.69015 14.0796 5.03827 13.9275 5.15918 13.6189L6.28601 10.7436C6.57357 10.0098 7.55739 9.88156 8.02346 10.5171L8.48144 11.1416C8.52244 11.1975 8.54821 11.2631 8.55621 11.332L8.80456 13.4692C8.84281 13.7984 9.14065 14.0342 9.4698 13.996C9.79896 13.9577 10.0348 13.6599 9.99654 13.3307L9.74819 11.1934C9.71618 10.918 9.61312 10.6555 9.44911 10.4319L8.72148 9.43973C8.52191 9.16761 8.47305 8.8132 8.59153 8.49724L8.93007 7.5944C8.95543 7.52679 8.99858 7.46729 9.05496 7.42218C9.24221 7.2724 9.51821 7.31952 9.64516 7.52293L9.89155 7.9177C9.93986 7.9951 10.0052 8.06047 10.0826 8.10882L11.6825 9.10882C11.9636 9.28445 12.3337 9.19903 12.5093 8.91802C12.685 8.63702 12.5996 8.26685 12.3185 8.09123L11.0321 7.2872C10.9032 7.20661 10.7943 7.09766 10.7138 6.96866L10.0676 5.93332C9.98573 5.80216 9.8564 5.70766 9.70657 5.66953L7.14853 5.01853Z" fill="#212121"/>
</svg>

<svg xmlns="http://www.w3.org/2000/svg" width="16" height="16"><path d="M8.75 2a1.25 1.25 0 1 0 0 2.5 1.25 1.25 0 0 0 0-2.5ZM6.5 3.25a2.25 2.25 0 1 1 3.832 1.6 1.6 1.6 0 0 1 .584.554l.646 1.035 1.287.804a1.6 1.6 0 1 1-1.696 2.714l-1.45-.906.578.817a2.6 2.6 0 0 1 .46 1.2l.25 2.147a1.6 1.6 0 0 1-3.18.37L7.58 11.59l-.355-.501-1.135 2.895a1.6 1.6 0 1 1-2.979-1.168L4.215 10A1.6 1.6 0 0 1 2.74 7.797l.962-2.368a1.6 1.6 0 0 1 1.112-.953l1.816-.433.013-.002A2.245 2.245 0 0 1 6.5 3.25Zm.649 1.769a.6.6 0 0 0-.287-.003l-1.817.433a.6.6 0 0 0-.417.357l-.963 2.368a.6.6 0 1 0 1.112.452l.754-1.855a.476.476 0 0 1 .884.353l-2.373 6.057a.6.6 0 0 0 1.117.438l1.127-2.875a1 1 0 0 1 1.737-.227l.458.625a.4.4 0 0 1 .075.19l.249 2.137a.6.6 0 1 0 1.192-.138l-.249-2.138a1.6 1.6 0 0 0-.299-.761l-.728-.992a1 1 0 0 1-.13-.943l.34-.903a.4.4 0 0 1 .714-.071l.247.395a.6.6 0 0 0 .19.19l1.6 1a.6.6 0 1 0 .636-1.017l-1.286-.804a1 1 0 0 1-.318-.318l-.646-1.036a.6.6 0 0 0-.361-.263l-2.558-.651Z"/></svg>
